!!!OTL: Der Jodlerin Absagung.
!!!OTL-incipit:DU WIRST MIRS JA NIT UEBEL NEHMA
!!!COM: Volksweise
!!!ARE: Europa, Mitteleuropa, Deutschland
!!!SCT: F0104
!!!TXL: @@GSW
!!!YEM: Copyright 1995, estate of Helmut Schaffrath.
**kern	**text
*ICvox	*
*clefG2	*
*M3/4	*
*k[b-]	*
*F:	*
!LO:TX:a:t=Wiegend.	!
{8f	1._Du
8a	wirſt
8b-/	mir's
=1	=1
4.cc	ja
8ff	nit
8ee	ü-
8dd	-bel
=2	=2
(8ccL	neh-
8fJ)	.
(8aL	-ma,
8fJ)}	.
{8.dd	wenn
16cc	i
=3	=3
(8ccL	nit
8eJ)	.
(8gL	meh
8eJ)	.
8.dd	ʒu
16cc	di
=4	=4
(8ccL	kom-
8fJ)	.
(8aL	-ma
8fJ)}	.
{8.a\	denn
16b-	du
=5	=5
4cc	weißt
4aa	ja
8.gg	all-
16ff	-ʒu-
=6	=6
(8ffL	-wohl,
8fJ)	.
(8aL	war-
8fJ)}	.
{8.dd	-um
16cc	i
=7	=7
(8ccL	nit
8eJ)	.
(8gL	meh
8eJ)	.
8.dd	komma
16cc	.
=8	=8
4f	ſoll.
8r}	.
{8fL	A-
8.dd	.
16ccJ	-i
=9	=9
(8ccL	a-
8eJ)	.
8g	-i
8eL	a-
8.dd	.
16ccJ	-i,
=10	=10
(8ccL	a-
8fJ)	.
8a}	-i
{(8fL	a-
8.dd	.
16ccJ)	-i,
=11	=11
(8ccL	a-
8eJ)	.
8g	-i
(8eL	a-
8.dd	.
16ccJ)	-i,
=12	=12
(8cc	a
8ff)	i
4cc;}	a!
{8.a	Denn
16b-/	du
=13	=13
4cc	weißt
4aa	ja
8.gg	all-
16ff	-ʒu-
=14	=14
(8ff/L	-wohl,
8fJ)	.
(8aL	war-
8fJ)}	.
{8.dd	-um
16cc	i
=15	=15
(8ccL	nit
8eJ)	.
(8gL	meh
8eJ)	.
8.dd	kom-
16cc	-ma
=16	=16
4f	ſoll.
8r;}	.
==	==
!!!AGN: Liebes - Lied, Trennung; Jodler
!!!ONB: ESAC (Essen Associative Code) Database: FINK
!!!AMT: simple triple
!!!AIN: vox
!!!EED: Helmut Schaffrath
!!!EEV: 1.0
!!!GTL:Volkslieder
!!Text: Volkslied
!!@@COMMENT:"Anmerkung: Der Buchſtabenlaut des Jodelns iſt nicht genau ʒu ſchreiben."
!!@@END:
!!!source: Musikalischer Hausschatz der Deutschen. Eine Sammlung von über 1000 Liedern und Gesängen mit Singstimmen und Klavierbegleitung. Leipzig, Litterarisches Verlags-Haus.
!!!page: 64
!!!URL-scan: https://www.digitale-sammlungen.de/en/view/bsb11144622?page=72,73
!!!ENC: Anna Maria Matuszewska
!!!EEV: 2024/07/25
*-	*-